src/renderer/assets/icon/nextStep-default-icon.svg

<svg width="40px" height="40px" viewBox="0 0 40 40" version="1.1" xmlns="http://www.w3.org/2000/svg" xmlns:xlink="http://www.w3.org/1999/xlink">
    <g id="主要" stroke="none" stroke-width="1" fill="none" fill-rule="evenodd">
        <g id="欢迎使用" transform="translate(-340.000000, -311.000000)">
            <g id="next" transform="translate(340.000000, 311.000000)">
                <circle id="椭圆形" stroke="#FFFFFF" stroke-width="1.3" cx="20" cy="20" r="19.2064947"></circle>
                <path d="M26.5519691,20.65 L12.4104931,20.65 C11.8004962,20.65 11.6008484,20.3589851 11.6008484,20 C11.6008484,19.6410149 11.8004962,19.35 12.4104931,19.35 L26.5660193,19.35 L21.0389553,13.6856576 C20.8807377,13.50728 20.8297019,13.2580441 20.9050726,13.0318349 C20.9804434,12.8056256 21.17077,12.6368094 21.4043584,12.5889777 C21.6379467,12.541146 21.8793092,12.6215656 22.0375268,12.7999433 L28.5832411,19.5499433 C28.8074901,19.8025991 28.8074901,20.1830017 28.5832411,20.4356576 L22.0360982,27.1856576 C21.8801137,27.3720099 21.6351357,27.458802 21.3966238,27.4122138 C21.158112,27.3656256 20.9638002,27.1930278 20.8894053,26.9616758 C20.8150103,26.7303238 20.8723018,26.4768189 21.0389553,26.2999433 L26.5519691,20.65 Z" id="形状结合" fill="#FFFFFF" fill-rule="nonzero"></path>
            </g>
        </g>
    </g>
</svg>

<svg width="40" height="40" xmlns="http://www.w3.org/2000/svg">
    <g fill="none" fill-rule="evenodd">
        <circle stroke="#FFF" stroke-width="1.3" cx="20" cy="20" r="19.206"/>
        <path d="M26.552 20.65H12.41c-.61 0-.81-.291-.81-.65 0-.359.2-.65.81-.65h14.156l-5.527-5.664a.667.667 0 01.999-.886l6.545 6.75a.667.667 0 010 .886l-6.547 6.75a.667.667 0 11-.997-.886l5.513-5.65z" fill="#FFF" fill-rule="nonzero"/>
    </g>
</svg>
